X:1
T:Bill Vanero
M:2/4
L:1/8
K:F
 AB| cd cA| F2 G A/2A/2| Bd dB| G2 AB| c3/2 c/2 e3/2 d/2| dc cB| A3/2 B/2 AG|\
 F2||||
